X:1
T:Title
%%score { ( 1 3 ) | 2 }
L:1/8
M:4/4
K:Eb
V:1 treble nm="Grand Piano"
V:3 treble 
V:2 treble 
V:1
 z4 z2 z[Q:1/4=100] B | B2 c>B A2 B>A | G2 A>G F4 | E3 D E2 [DF]2 |[M:7/8] G-G-G- G3 z |[M:1/8] B | %6
[M:4/4] B2 c>B A2 B>A | G2 A>G F4 | E3 E [EG]2 [DF]2 | [B,E]6 z2 | [GB]3 A G2 z2 | G3 F E2 z2 | %12
 E3 E E2 DE | z4 F4 | B3 A G2 z2 | G3 F E2 z2 | E2 DE [DG]2 [DF]2 | %17
[M:7/8] [B,E]-[B,E]-[B,E]- [B,E]3 z |] %18
V:2
 z4 z2 z G | G2 A>G F2 G>F | E2 F>E D4 | [E,G,B,]3 [F,A,B,] [E,G,B,]2 [B,,B,]2 | %4
[M:7/8] [E,B,E]-[E,B,E]-[E,B,E]- [E,B,E]3 z |[M:1/8][K:treble] G |[M:4/4] G2 A>G F2 G>F | %7
 E2 F>E D4 | [E,G,B,]3 [E,G,B,] [B,,B,]2 [B,,A,]2 | [E,G,]6 z2 | [E,E]3 [E,CE] [E,B,E]2 z2 | %11
 [E,B,E]3 [E,A,B,] [E,G,B,]2 z2 | [E,G,B,]3 [E,G,B,] [F,B,]2 [A,B,][G,B,] | %13
 [F,=A,E]2 [F,A,E]2 [B,D]4 | [G,B,E]3 [F,B,D] [E,B,E]2 z2 | [E,B,E]3 [E,A,B,] [E,G,B,]2 z2 | %16
 [G,B,]2 [B,,F,B,][B,,G,B,] [B,,B,]2 [B,,A,]2 |[M:7/8] [E,G,]-[E,G,]-[E,G,]- [E,G,]3 z |] %18
V:3
 x8 | x8 | x8 | x8 |[M:7/8] x7 |[M:1/8] x |[M:4/4] x8 | x8 | x8 | x8 | x8 | x8 | x8 | %13
 G2 F2 z2 A,2 | x8 | x8 | x8 |[M:7/8] x7 |] %18

